icons/themes/default/receipt.svg

<svg viewBox="0 0 16 16" fill="none" xmlns="http://www.w3.org/2000/svg">
<path fill-rule="evenodd" clip-rule="evenodd" d="M2.94995 3.34006C2.94995 2.8238 3.07868 2.52844 3.2485 2.35861C3.41833 2.18879 3.71369 2.06006 4.22995 2.06006H11.79C12.3062 2.06006 12.6016 2.18879 12.7714 2.35861C12.9412 2.52844 13.07 2.8238 13.07 3.34006V14.0001H12.707L11.3535 12.6465C11.1582 12.4512 10.8416 12.4512 10.6464 12.6465L9.49994 13.793L8.35349 12.6465C8.15823 12.4512 7.84165 12.4512 7.64639 12.6465L6.49994 13.793L5.35349 12.6465C5.15823 12.4512 4.84165 12.4512 4.64639 12.6465L3.29283 14.0001H2.94995V3.34006ZM4.22995 1.06006C3.55955 1.06006 2.9649 1.228 2.5414 1.65151C2.11789 2.07501 1.94995 2.66965 1.94995 3.34006V14.5001C1.94995 14.7762 2.17381 15.0001 2.44995 15.0001H3.49994C3.63255 15.0001 3.75972 14.9474 3.85349 14.8536L4.99994 13.7072L6.14639 14.8536C6.34165 15.0489 6.65823 15.0489 6.85349 14.8536L7.99994 13.7072L9.14639 14.8536C9.34165 15.0489 9.65823 15.0489 9.85349 14.8536L10.9999 13.7072L12.1464 14.8536C12.2402 14.9474 12.3673 15.0001 12.4999 15.0001H13.57C13.8461 15.0001 14.07 14.7762 14.07 14.5001V3.34006C14.07 2.66965 13.902 2.07501 13.4785 1.65151C13.055 1.228 12.4604 1.06006 11.79 1.06006H4.22995ZM4.49994 5.50006C4.49994 5.22392 4.7238 5.00006 4.99994 5.00006H10.9999C11.2761 5.00006 11.4999 5.22392 11.4999 5.50006C11.4999 5.7762 11.2761 6.00006 10.9999 6.00006H4.99994C4.7238 6.00006 4.49994 5.7762 4.49994 5.50006ZM4.61993 8.40005C4.61993 8.12391 4.84379 7.90005 5.11993 7.90005H10.8999C11.1761 7.90005 11.3999 8.12391 11.3999 8.40005C11.3999 8.6762 11.1761 8.90005 10.8999 8.90005H5.11993C4.84379 8.90005 4.61993 8.6762 4.61993 8.40005Z" fill="currentColor"/>
</svg>

<svg xmlns="http://www.w3.org/2000/svg" fill="none" viewBox="0 0 16 16">
  <path fill="currentColor" fill-rule="evenodd" d="M2.95 3.34c0-.516.129-.812.298-.981.17-.17.466-.299.982-.299h7.56c.516 0 .812.129.981.299.17.17.299.465.299.981V14h-.363l-1.354-1.354a.5.5 0 0 0-.707 0L9.5 13.793l-1.147-1.146a.5.5 0 0 0-.707 0L6.5 13.793l-1.147-1.146a.5.5 0 0 0-.707 0L3.293 14H2.95V3.34Zm1.28-2.28c-.67 0-1.265.168-1.689.592-.423.423-.591 1.018-.591 1.688V14.5a.5.5 0 0 0 .5.5H3.5a.5.5 0 0 0 .353-.146L5 13.707l1.146 1.147a.5.5 0 0 0 .707 0L8 13.707l1.146 1.147a.5.5 0 0 0 .707 0L11 13.707l1.146 1.147A.5.5 0 0 0 12.5 15h1.07a.5.5 0 0 0 .5-.5V3.34c0-.67-.168-1.265-.591-1.688-.424-.424-1.019-.592-1.689-.592H4.23ZM4.5 5.5A.5.5 0 0 1 5 5h6a.5.5 0 1 1 0 1H5a.5.5 0 0 1-.5-.5Zm.12 2.9a.5.5 0 0 1 .5-.5h5.78a.5.5 0 1 1 0 1H5.12a.5.5 0 0 1-.5-.5Z" clip-rule="evenodd"/>
</svg>
